48x48/apps/lutris_planetary-annihilation-titans.svg

<svg xmlns="http://www.w3.org/2000/svg" width="48" height="48"><rect style="fill:#fa7645" width="40" height="40" x="4" y="4" rx="2" ry="2"/><path style="opacity:.2;fill:#f4f4f7" d="M4 7V6c0-1.108.892-2 2-2h36c1.108 0 2 .892 2 2v1c0-1.108-.892-2-2-2H6c-1.108 0-2 .892-2 2z"/><path style="opacity:.2" d="M4 42v1c0 1.108.892 2 2 2h36c1.108 0 2-.892 2-2v-1c0 1.108-.892 2-2 2H6c-1.108 0-2-.892-2-2z"/><path style="opacity:.1;fill-rule:evenodd" d="M14.5 12 12 29l7.2 9h9.6l7.2-9-2.5-17h-19zm4.295 2h10.41L34.5 29l-6.125 7H27v-3h-6v3h-1.375L13.5 29l5.295-15zM19 15l1 3h2l1 6h2l1-6h2l1-3H19zm-3 9 4.115 6L21 27.334 16 24zm16 0-5 3.334.885 2.666L32 24z"/><path style="fill:#17191e;fill-rule:evenodd" d="M14.5 11 12 28l7.2 9h9.6l7.2-9-2.5-17h-19zm4.295 2h10.41L34.5 28l-6.125 7H27v-3h-6v3h-1.375L13.5 28l5.295-15zM19 14l1 3h2l1 6h2l1-6h2l1-3H19zm-3 9 4.115 6L21 26.334 16 23zm16 0-5 3.334.885 2.666L32 23z"/></svg>

<svg xmlns="http://www.w3.org/2000/svg" width="48" height="48" version="1.1">
 <rect style="fill:#fa7645" width="40" height="40" x="4" y="4" rx="2" ry="2"/>
 <path style="opacity:0.2;fill:#f4f4f7" d="M 4,7 4,6 C 4,4.892 4.892,4 6,4 l 36,0 c 1.108,0 2,0.892 2,2 l 0,1 C 44,5.892 43.108,5 42,5 L 6,5 C 4.892,5 4,5.892 4,7 Z"/>
 <path style="opacity:0.2" d="m 4,42 0,1 c 0,1.108 0.892,2 2,2 l 36,0 c 1.108,0 2,-0.892 2,-2 l 0,-1 c 0,1.108 -0.892,2 -2,2 L 6,44 C 4.892,44 4,43.108 4,42 Z"/>
 <path style="opacity:0.1;fill-rule:evenodd" d="M 14.5,12 12,29 19.199219,38 28.800781,38 36,29 33.5,12 l -5,0 -9,0 -5,0 z m 4.294922,2 10.410156,0 L 34.5,29 28.375,36 27,36 l 0,-3 -6,0 0,3 -1.375,0 L 13.5,29 18.794922,14 Z M 19,15 l 1,3 2,0 1,6 2,0 1,-6 2,0 1,-3 -10,0 z m -3,9 4.115234,6 L 21,27.333984 16,24 Z M 32,24 27,27.333984 27.884766,30 32,24 Z"/>
 <path style="fill:#17191e;fill-rule:evenodd" d="M 14.5,11 12,28 19.199219,37 28.800781,37 36,28 33.5,11 l -5,0 -9,0 -5,0 z m 4.294922,2 10.410156,0 L 34.5,28 28.375,35 27,35 l 0,-3 -6,0 0,3 -1.375,0 L 13.5,28 18.794922,13 Z M 19,14 l 1,3 2,0 1,6 2,0 1,-6 2,0 1,-3 -10,0 z m -3,9 4.115234,6 L 21,26.333984 16,23 Z M 32,23 27,26.333984 27.884766,29 32,23 Z"/>
</svg>
